X:13
T:La Belle Isabelle. Tho24CDs1792.13
T:Davy Davy Nick Nack,aka. Tho24CDs1792.13
M:2/4
L:1/16
Q:1/4=110
C:"85"
B:Thompson 24 CDs 1792
Z:Village Music Project, Chris Partington, 1999 & 2017
W:Turn your partner half round with the right and turn the sides with
W:your left .| then the sides back again with the right hand turn your
W:partner with your left :| lead down the middle,up again :|.1st & 2nd Cu:
W:Poussett :|
K:G
|:D2|GFGA B2B2|GFGA B2B2|dcBc A2A2|dcBc A2A2|
GFGA B2B2|GFGA B2B2|dcBc A2B2|G6:|
|:d2|dcBc d2d2|g4d4|dcBc A2A2|dcBc A2A2|
dcBc d2d2|{f}g4d4|dcBc A2B2|G6:|

